austria/municipalities/40416.svg

<?xml version="1.0" encoding="UTF-8"?>
<!DOCTYPE svg PUBLIC "-//W3C//DTD SVG 1.1//EN" "http://www.w3.org/Graphics/SVG/1.1/DTD/svg11.dtd">
<svg xmlns="http://www.w3.org/2000/svg" version="1.1" width="166px" height="207px" style="shape-rendering:geometricPrecision; text-rendering:geometricPrecision; image-rendering:optimizeQuality; fill-rule:evenodd; clip-rule:evenodd" xmlns:xlink="http://www.w3.org/1999/xlink">
<g><path style="opacity:1" fill="#010000" d="M -0.5,-0.5 C 54.8333,-0.5 110.167,-0.5 165.5,-0.5C 165.5,43.8333 165.5,88.1667 165.5,132.5C 157.932,172.068 134.599,196.735 95.5,206.5C 86.8333,206.5 78.1667,206.5 69.5,206.5C 30.0061,196.67 6.67281,171.67 -0.5,131.5C -0.5,87.5 -0.5,43.5 -0.5,-0.5 Z"/></g>
<g><path style="opacity:1" fill="#fe9900" d="M 147.5,127.5 C 153.944,124.928 153.277,123.928 145.5,124.5C 145.524,119.38 143.524,115.213 139.5,112C 137.527,111.505 135.527,111.338 133.5,111.5C 133.876,108.373 133.876,105.373 133.5,102.5C 132.565,105.102 130.898,107.102 128.5,108.5C 122.7,104.525 116.867,104.525 111,108.5C 110.517,109.448 110.351,110.448 110.5,111.5C 100.027,110.198 97.5266,105.198 103,96.5C 104.826,91.8829 104.993,87.2162 103.5,82.5C 105.027,82.573 106.027,81.9063 106.5,80.5C 107.756,80.5386 108.756,80.0386 109.5,79C 107.527,78.5045 105.527,78.3379 103.5,78.5C 102.742,70.4085 98.409,66.0752 90.5,65.5C 91.3211,62.4465 91.3211,59.4465 90.5,56.5C 88.9617,58.2433 87.9617,60.2433 87.5,62.5C 86.8333,62.5 86.5,62.8333 86.5,63.5C 85.36,62.1986 84.0267,61.0319 82.5,60C 78.8333,59.3333 75.1667,59.3333 71.5,60C 69.3809,61.779 67.3809,63.6123 65.5,65.5C 59.9742,63.9683 56.9742,60.3016 56.5,54.5C 62.0188,49.6491 63.3521,43.9824 60.5,37.5C 61.6119,36.7348 62.2786,35.7348 62.5,34.5C 68.9441,31.928 68.2774,30.928 60.5,31.5C 60.5235,26.3799 58.5235,22.2132 54.5,19C 52.5273,18.5045 50.5273,18.3379 48.5,18.5C 49.3434,7.93799 48.01,7.27133 44.5,16.5C 39.4175,12.0453 33.7508,11.3786 27.5,14.5C 26.3333,16.1667 25.1667,17.8333 24,19.5C 16.9273,15.7622 11.0939,10.5956 6.5,4C 21.8333,3.33333 37.1667,3.33333 52.5,4C 88.6667,43.1667 124.833,82.3333 161,121.5C 162.089,135.807 159.089,149.14 152,161.5C 146.883,157.734 143.383,152.901 141.5,147C 147.104,142.387 148.437,136.887 145.5,130.5C 146.193,129.482 146.859,128.482 147.5,127.5 Z"/></g>
<g><path style="opacity:1" fill="#003266" d="M 56.5,3.5 C 91.5,3.5 126.5,3.5 161.5,3.5C 161.667,41.5015 161.5,79.5015 161,117.5C 125.57,79.9095 90.7367,41.9095 56.5,3.5 Z"/></g>
<g><path style="opacity:1" fill="#003266" d="M 30.5,63.5 C 31.7887,62.4991 33.1221,62.6658 34.5,64C 40.9128,65.1474 46.5794,63.6474 51.5,59.5C 56.0465,61.2129 59.0465,64.3796 60.5,69C 58.8686,70.9262 57.0353,72.7596 55,74.5C 52.1334,79.9224 52.3001,85.0891 55.5,90C 54.7476,90.6708 54.4142,91.5041 54.5,92.5C 48.0559,95.072 48.7226,96.072 56.5,95.5C 57.6941,102.363 61.6941,106.696 68.5,108.5C 69.2537,111.777 69.7537,115.11 70,118.5C 71.128,116.655 71.628,114.655 71.5,112.5C 72.7124,111.77 73.7124,110.77 74.5,109.5C 81.4502,112.769 87.7836,111.769 93.5,106.5C 98.5398,107.376 101.873,110.21 103.5,115C 101.032,117.142 98.8649,119.642 97,122.5C 94.6616,127.64 95.1616,132.473 98.5,137C 97.944,137.383 97.6107,137.883 97.5,138.5C 89.1803,142.174 89.5136,143.174 98.5,141.5C 99.8529,148.853 104.186,153.186 111.5,154.5C 111.804,157.522 112.304,160.522 113,163.5C 113.889,160.324 115.055,157.324 116.5,154.5C 117.627,155.122 118.627,155.955 119.5,157C 120.833,157.167 122.167,157.333 123.5,157.5C 128.629,156.927 133.295,155.26 137.5,152.5C 142.554,155.379 146.887,159.213 150.5,164C 144.108,173.729 136.275,182.229 127,189.5C 86.3967,144.559 45.3967,99.8926 4,55.5C 3.33333,38.8333 3.33333,22.1667 4,5.5C 8.8283,11.328 13.995,16.828 19.5,22C 13.7975,25.5491 10.7975,30.7158 10.5,37.5C 11.1228,39.7105 12.1228,41.7105 13.5,43.5C 11.3345,45.4933 9.00112,47.3267 6.5,49C 9.14603,49.4974 11.8127,49.6641 14.5,49.5C 15.8256,56.1589 19.8256,60.1589 26.5,61.5C 26.8897,64.8394 27.3897,68.1727 28,71.5C 28.561,68.7206 29.3944,66.054 30.5,63.5 Z"/></g>
<g><path style="opacity:1" fill="#cb0000" d="M 33.5,14.5 C 42.9519,15.74 44.9519,20.4066 39.5,28.5C 36.3988,27.3507 33.3988,27.6841 30.5,29.5C 26.5038,26.1794 25.6704,22.1794 28,17.5C 29.8761,16.3913 31.7095,15.3913 33.5,14.5 Z"/></g>
<g><path style="opacity:1" fill="#cb0000" d="M 44.5,16.5 C 45.7498,16.4226 46.5831,15.756 47,14.5C 47.8837,16.6406 47.3837,18.3073 45.5,19.5C 44.6143,18.675 44.281,17.675 44.5,16.5 Z"/></g>
<g><path style="opacity:1" fill="#cb0000" d="M 22.5,20.5 C 24.2252,20.8425 24.7252,21.8425 24,23.5C 22.9614,22.7562 22.4614,21.7562 22.5,20.5 Z"/></g>
<g><path style="opacity:1" fill="#cb0000" d="M 47.5,20.5 C 53.4266,20.9194 57.0932,24.0861 58.5,30C 58.5607,31.7106 57.8941,33.044 56.5,34C 53.8276,34.8344 51.161,35.6677 48.5,36.5C 47.1193,33.6211 45.1193,31.1211 42.5,29C 43.7084,25.8463 45.3751,23.013 47.5,20.5 Z"/></g>
<g><path style="opacity:1" fill="#fe9900" d="M 20.5,25.5 C 23.6658,26.9282 26.3325,29.0949 28.5,32C 26.5294,34.8648 25.8627,37.8648 26.5,41C 16.0933,45.565 11.9266,42.3983 14,31.5C 14.8224,27.837 16.989,25.837 20.5,25.5 Z"/></g>
<g><path style="opacity:1" fill="#cd0b00" d="M 32.5,30.5 C 43.0631,29.8946 46.5631,34.5612 43,44.5C 40.3702,40.8683 37.3702,37.535 34,34.5C 33.2086,33.255 32.7086,31.9217 32.5,30.5 Z"/></g>
<g><path style="opacity:1" fill="#cb0000" d="M 62.5,34.5 C 60.856,35.3657 59.1893,35.8657 57.5,36C 58.9063,33.5507 60.9063,32.5507 63.5,33C 62.944,33.3826 62.6107,33.8826 62.5,34.5 Z"/></g>
<g><path style="opacity:1" fill="#fe9900" d="M 29.5,33.5 C 33.8534,36.8542 37.5201,40.8542 40.5,45.5C 30.6206,47.2856 26.954,43.2856 29.5,33.5 Z"/></g>
<g><path style="opacity:1" fill="#cc0300" d="M 51.5,37.5 C 61.3087,38.7488 62.9754,43.2488 56.5,51C 51.5763,51.7843 47.5763,50.1176 44.5,46C 46.7593,44.0651 47.7593,41.5651 47.5,38.5C 49.099,38.7678 50.4324,38.4345 51.5,37.5 Z"/></g>
<g><path style="opacity:1" fill="#fe9900" d="M 24.5,43.5 C 27.7291,45.0541 30.3958,47.3874 32.5,50.5C 32.1246,57.0496 28.7912,59.5496 22.5,58C 14.7604,51.8219 15.4271,46.9886 24.5,43.5 Z"/></g>
<g><path style="opacity:1" fill="#fe9900" d="M 14.5,44.5 C 16.6477,44.3894 16.981,45.056 15.5,46.5C 14.635,47.5827 13.635,47.7494 12.5,47C 13.3805,46.2917 14.0472,45.4584 14.5,44.5 Z"/></g>
<g><path style="opacity:1" fill="#fe9900" d="M 42.5,47.5 C 45.4164,49.8205 47.7497,52.6538 49.5,56C 46.331,61.2462 41.6644,63.2462 35.5,62C 35,61.5 34.5,61 34,60.5C 33.5499,56.8125 33.7166,53.1458 34.5,49.5C 36.8568,49.6633 39.1902,49.4966 41.5,49C 42.056,48.6174 42.3893,48.1174 42.5,47.5 Z"/></g>
<g><path style="opacity:1" fill="#cb0000" d="M 52.5,53.5 C 55.1526,54.1415 56.3193,55.8082 56,58.5C 54.5881,56.9354 53.4214,55.2687 52.5,53.5 Z"/></g>
<g><path style="opacity:1" fill="#fe9900" d="M 3.5,59.5 C 43.8005,102.637 83.9672,145.97 124,189.5C 124.688,190.332 124.521,190.998 123.5,191.5C 84.0519,211.676 49.5519,205.342 20,172.5C 11.5635,161.205 6.23018,148.538 4,134.5C 3.50003,109.502 3.33336,84.5022 3.5,59.5 Z"/></g>
<g><path style="opacity:1" fill="#fe9900" d="M 30.5,63.5 C 28.8916,64.5381 27.8916,63.8714 27.5,61.5C 30.9617,58.6315 31.9617,59.2981 30.5,63.5 Z"/></g>
<g><path style="opacity:1" fill="#cb0000" d="M 73.5,61.5 C 83.7455,60.5697 86.7455,64.7364 82.5,74C 79.0971,74.1004 75.9304,74.9337 73,76.5C 68.1779,71.1156 68.3446,66.1156 73.5,61.5 Z"/></g>
<g><path style="opacity:1" fill="#bb0902" d="M 86.5,63.5 C 86.5,62.8333 86.8333,62.5 87.5,62.5C 88.1174,62.3893 88.6174,62.056 89,61.5C 89.8837,63.6406 89.3837,65.3073 87.5,66.5C 86.6143,65.675 86.281,64.675 86.5,63.5 Z"/></g>
<g><path style="opacity:1" fill="#cb0000" d="M 89.5,67.5 C 94.5581,66.7168 98.0581,68.7168 100,73.5C 101.173,77.3054 100.007,80.1387 96.5,82C 85.4464,81.4369 83.1131,76.6035 89.5,67.5 Z"/></g>
<g><path style="opacity:1" fill="#fe9900" d="M 62.5,72.5 C 66.2766,72.9343 68.9433,74.9343 70.5,78.5C 68.9733,81.6596 68.3067,84.993 68.5,88.5C 64.5,88.5 60.5,88.5 56.5,88.5C 55.3279,84.4874 55.4946,80.4874 57,76.5C 58.4615,74.5318 60.2948,73.1984 62.5,72.5 Z"/></g>
<g><path style="opacity:1" fill="#cc0700" d="M 78.5,76.5 C 82.9436,77.7762 85.9436,80.6095 87.5,85C 86.8534,86.6095 86.02,88.1095 85,89.5C 81.3605,86.2065 78.1939,82.5399 75.5,78.5C 76.6016,77.8243 77.6016,77.1577 78.5,76.5 Z"/></g>
<g><path style="opacity:1" fill="#cb0000" d="M 106.5,80.5 C 104.821,80.2852 103.821,80.9519 103.5,82.5C 100.043,83.5148 99.7096,82.6814 102.5,80C 104.066,79.235 105.399,79.4017 106.5,80.5 Z"/></g>
<g><path style="opacity:1" fill="#fe9900" d="M 71.5,80.5 C 76.085,83.4136 80.085,87.0802 83.5,91.5C 73.2908,94.9644 69.2908,91.2977 71.5,80.5 Z"/></g>
<g><path style="opacity:1" fill="#000000" d="M 106.5,80.5 C 106.027,81.9063 105.027,82.573 103.5,82.5C 103.821,80.9519 104.821,80.2852 106.5,80.5 Z"/></g>
<g><path style="opacity:1" fill="#cd0a00" d="M 91.5,84.5 C 102.715,84.4304 105.048,88.9304 98.5,98C 96.5,98.6667 94.5,98.6667 92.5,98C 91.0716,95.8153 89.4049,93.8153 87.5,92C 88.7711,89.4305 90.1045,86.9305 91.5,84.5 Z"/></g>
<g><path style="opacity:1" fill="#fe9900" d="M 65.5,90.5 C 66.8734,90.3433 68.2068,90.51 69.5,91C 70.8908,93.3903 72.8908,95.0569 75.5,96C 71.3808,107.952 65.7141,108.618 58.5,98C 59.3295,96.1839 60.1628,94.3506 61,92.5C 62.6225,91.9011 64.1225,91.2344 65.5,90.5 Z"/></g>
<g><path style="opacity:1" fill="#fe9900" d="M 54.5,92.5 C 55.9669,91.7084 57.3002,91.7084 58.5,92.5C 57.3073,94.3837 55.6406,94.8837 53.5,94C 54.056,93.6174 54.3893,93.1174 54.5,92.5 Z"/></g>
<g><path style="opacity:1" fill="#fe9900" d="M 84.5,94.5 C 89.8516,96.3394 92.0182,100.006 91,105.5C 87.0523,109.061 82.5523,110.061 77.5,108.5C 75.1746,105.36 75.0079,102.026 77,98.5C 79.4381,96.9877 81.9381,95.6544 84.5,94.5 Z"/></g>
<g><path style="opacity:1" fill="#cb0000" d="M 95.5,101.5 C 96.0768,100.227 96.7435,100.227 97.5,101.5C 97.0302,102.463 96.3635,102.463 95.5,101.5 Z"/></g>
<g><path style="opacity:1" fill="#fe9900" d="M 93.5,103.5 C 94.2891,103.783 94.9558,104.283 95.5,105C 94.184,105.528 93.5173,105.028 93.5,103.5 Z"/></g>
<g><path style="opacity:1" fill="#fe9900" d="M 71.5,112.5 C 70.053,110.162 70.553,108.162 73,106.5C 72.4052,108.35 71.9052,110.35 71.5,112.5 Z"/></g>
<g><path style="opacity:1" fill="#cb0000" d="M 116.5,107.5 C 127.388,107.266 130.054,111.932 124.5,121.5C 120.893,121.015 117.393,121.015 114,121.5C 110.348,115.871 111.181,111.204 116.5,107.5 Z"/></g>
<g><path style="opacity:1" fill="#cb0000" d="M 131.5,107.5 C 132.853,109.515 132.353,111.182 130,112.5C 129.5,112 129,111.5 128.5,111C 129.71,109.961 130.71,108.794 131.5,107.5 Z"/></g>
<g><path style="opacity:1" fill="#cb0000" d="M 106.5,113.5 C 108.496,112.312 109.329,112.979 109,115.5C 108.292,114.619 107.458,113.953 106.5,113.5 Z"/></g>
<g><path style="opacity:1" fill="#cb0000" d="M 132.5,113.5 C 138.298,113.454 141.964,116.287 143.5,122C 143.01,123.982 142.01,125.649 140.5,127C 138.129,127.735 135.795,128.568 133.5,129.5C 132.07,126.567 130.07,124.067 127.5,122C 128.123,118.546 129.789,115.713 132.5,113.5 Z"/></g>
<g><path style="opacity:1" fill="#fe9900" d="M 105.5,118.5 C 108.814,119.301 111.48,121.134 113.5,124C 111.387,127.173 110.387,130.673 110.5,134.5C 98.5457,137.035 95.0457,132.701 100,121.5C 101.719,120.131 103.552,119.131 105.5,118.5 Z"/></g>
<g><path style="opacity:1" fill="#cb0000" d="M 120.5,122.5 C 128.5,124.165 131,128.832 128,136.5C 124.686,132.352 121.186,128.352 117.5,124.5C 118.602,123.824 119.602,123.158 120.5,122.5 Z"/></g>
<g><path style="opacity:1" fill="#fe9900" d="M 114.5,125.5 C 118.997,129.164 122.997,133.331 126.5,138C 119.179,141.006 114.513,138.673 112.5,131C 113.464,129.275 114.131,127.441 114.5,125.5 Z"/></g>
<g><path style="opacity:1" fill="#cb0000" d="M 147.5,127.5 C 145.956,127.703 144.622,128.37 143.5,129.5C 143.167,129.167 142.833,128.833 142.5,128.5C 143.989,126.251 145.989,125.418 148.5,126C 147.944,126.383 147.611,126.883 147.5,127.5 Z"/></g>
<g><path style="opacity:1" fill="#cc0300" d="M 134.5,130.5 C 145.111,130.285 147.445,134.785 141.5,144C 139.098,144.814 136.765,144.647 134.5,143.5C 133.52,142.019 132.353,140.685 131,139.5C 131.405,136.22 132.572,133.22 134.5,130.5 Z"/></g>
<g><path style="opacity:1" fill="#fefffe" d="M -0.5,131.5 C 6.67281,171.67 30.0061,196.67 69.5,206.5C 46.1667,206.5 22.8333,206.5 -0.5,206.5C -0.5,181.5 -0.5,156.5 -0.5,131.5 Z"/></g>
<g><path style="opacity:1" fill="#fefffe" d="M 165.5,132.5 C 165.5,157.167 165.5,181.833 165.5,206.5C 142.167,206.5 118.833,206.5 95.5,206.5C 134.599,196.735 157.932,172.068 165.5,132.5 Z"/></g>
<g><path style="opacity:1" fill="#fe9900" d="M 107.5,136.5 C 111.671,137.134 115.004,139.301 117.5,143C 114.183,153.359 109.016,154.192 102,145.5C 101.348,140.934 103.182,137.934 107.5,136.5 Z"/></g>
<g><path style="opacity:1" fill="#fe9900" d="M 97.5,138.5 C 102.323,137.074 102.656,137.741 98.5,140.5C 96.279,140.561 95.9456,139.895 97.5,138.5 Z"/></g>
<g><path style="opacity:1" fill="#fe9900" d="M 127.5,140.5 C 131.211,141.899 133.544,144.566 134.5,148.5C 132.266,153.211 128.433,155.544 123,155.5C 121.289,155.561 119.956,154.894 119,153.5C 118.421,149.797 118.588,146.131 119.5,142.5C 121.857,142.663 124.19,142.497 126.5,142C 127.056,141.617 127.389,141.117 127.5,140.5 Z"/></g>
<g><path style="opacity:1" fill="#d531ff" d="M 138.5,146.5 C 140.225,146.843 140.725,147.843 140,149.5C 138.961,148.756 138.461,147.756 138.5,146.5 Z"/></g>
<g><path style="opacity:1" fill="#fe9900" d="M 137.5,152.5 C 136.257,148.693 136.924,148.526 139.5,152C 138.906,152.464 138.239,152.631 137.5,152.5 Z"/></g>
<g><path style="opacity:1" fill="#fe9900" d="M 116.5,154.5 C 114.959,156.794 113.625,156.794 112.5,154.5C 114.262,152.193 115.595,152.193 116.5,154.5 Z"/></g>
</svg>

<svg xmlns="http://www.w3.org/2000/svg" width="166" height="207" style="shape-rendering:geometricPrecision;text-rendering:geometricPrecision;image-rendering:optimizeQuality;fill-rule:evenodd;clip-rule:evenodd"><path style="opacity:1" fill="#010000" d="M-.5-.5h166v133c-7.568 39.568-30.901 64.235-70 74h-26c-39.494-9.83-62.827-34.83-70-75V-.5z"/><path style="opacity:1" fill="#fe9900" d="M147.5 127.5c6.444-2.572 5.777-3.572-2-3 .024-5.12-1.976-9.287-6-12.5a18.453 18.453 0 0 0-6-.5c.376-3.127.376-6.127 0-9-.935 2.602-2.602 4.602-5 6-5.8-3.975-11.633-3.975-17.5 0a4.934 4.934 0 0 0-.5 3c-10.473-1.302-12.973-6.302-7.5-15 1.826-4.617 1.993-9.284.5-14 1.527.073 2.527-.594 3-2 1.256.039 2.256-.461 3-1.5a18.437 18.437 0 0 0-6-.5c-.758-8.091-5.091-12.425-13-13 .821-3.053.821-6.053 0-9a12.802 12.802 0 0 0-3 6c-.667 0-1 .333-1 1a20.665 20.665 0 0 0-4-3.5 30.499 30.499 0 0 0-11 0 91.636 91.636 0 0 0-6 5.5c-5.526-1.532-8.526-5.198-9-11 5.519-4.85 6.852-10.518 4-17 1.112-.765 1.779-1.765 2-3 6.444-2.572 5.777-3.572-2-3 .023-5.12-1.977-9.287-6-12.5a18.436 18.436 0 0 0-6-.5c.843-10.562-.49-11.229-4-2-5.083-4.455-10.75-5.121-17-2l-3.5 5C16.927 15.762 11.094 10.596 6.5 4a529.247 529.247 0 0 1 46 0L161 121.5c1.089 14.307-1.911 27.64-9 40-5.117-3.766-8.617-8.599-10.5-14.5 5.604-4.613 6.937-10.113 4-16.5a185.977 185.977 0 0 0 2-3z"/><path style="opacity:1" fill="#003266" d="M56.5 3.5h105c.167 38.002 0 76.001-.5 114A5563.225 5563.225 0 0 1 56.5 3.5zM30.5 63.5c1.289-1 2.622-.834 4 .5 6.413 1.147 12.08-.353 17-4.5 4.547 1.713 7.547 4.88 9 9.5a48.431 48.431 0 0 1-5.5 5.5c-2.867 5.422-2.7 10.59.5 15.5-.752.67-1.086 1.504-1 2.5-6.444 2.572-5.777 3.572 2 3 1.194 6.863 5.194 11.196 12 13a65.825 65.825 0 0 1 1.5 10 10.098 10.098 0 0 0 1.5-6c1.212-.73 2.212-1.73 3-3 6.95 3.269 13.284 2.269 19-3 5.04.876 8.373 3.71 10 8.5-2.468 2.142-4.635 4.642-6.5 7.5-2.338 5.14-1.838 9.973 1.5 14.5-.556.383-.89.883-1 1.5-8.32 3.674-7.986 4.674 1 3 1.353 7.353 5.686 11.686 13 13a70.523 70.523 0 0 0 1.5 9 48.25 48.25 0 0 1 3.5-9 10.515 10.515 0 0 1 3 2.5l4 .5c5.129-.573 9.795-2.24 14-5 5.054 2.879 9.387 6.713 13 11.5-6.392 9.729-14.225 18.229-23.5 25.5A11544.105 11544.105 0 0 0 4 55.5a625.247 625.247 0 0 1 0-50A181.46 181.46 0 0 0 19.5 22c-5.703 3.55-8.703 8.716-9 15.5a17.542 17.542 0 0 0 3 6 57.64 57.64 0 0 1-7 5.5c2.646.497 5.313.664 8 .5 1.326 6.659 5.326 10.659 12 12 .39 3.34.89 6.673 1.5 10a39.999 39.999 0 0 1 2.5-8z"/><path style="opacity:1" fill="#cb0000" d="M33.5 14.5c9.452 1.24 11.452 5.907 6 14-3.101-1.15-6.101-.816-9 1-3.996-3.32-4.83-7.32-2.5-12a87.289 87.289 0 0 1 5.5-3zM44.5 16.5c1.25-.077 2.083-.744 2.5-2 .884 2.14.384 3.807-1.5 5-.886-.825-1.219-1.825-1-3zM22.5 20.5c1.725.343 2.225 1.343 1.5 3-1.039-.744-1.539-1.744-1.5-3zM47.5 20.5c5.927.42 9.593 3.586 11 9.5.06 1.71-.606 3.044-2 4l-8 2.5c-1.38-2.879-3.38-5.379-6-7.5 1.208-3.154 2.875-5.987 5-8.5z"/><path style="opacity:1" fill="#fe9900" d="M20.5 25.5c3.166 1.428 5.832 3.595 8 6.5-1.97 2.865-2.637 5.865-2 9-10.407 4.565-14.573 1.398-12.5-9.5.822-3.663 2.989-5.663 6.5-6z"/><path style="opacity:1" fill="#cd0b00" d="M32.5 30.5c10.563-.605 14.063 4.061 10.5 14a63.72 63.72 0 0 0-9-10 10.123 10.123 0 0 1-1.5-4z"/><path style="opacity:1" fill="#cb0000" d="M62.5 34.5c-1.644.866-3.31 1.366-5 1.5 1.406-2.45 3.406-3.45 6-3-.556.383-.89.883-1 1.5z"/><path style="opacity:1" fill="#fe9900" d="M29.5 33.5a47.208 47.208 0 0 1 11 12c-9.88 1.786-13.546-2.214-11-12z"/><path style="opacity:1" fill="#cc0300" d="M51.5 37.5c9.809 1.249 11.475 5.749 5 13.5-4.924.784-8.924-.882-12-5 2.26-1.935 3.26-4.435 3-7.5 1.599.268 2.932-.066 4-1z"/><path style="opacity:1" fill="#fe9900" d="M24.5 43.5c3.23 1.554 5.896 3.887 8 7-.375 6.55-3.709 9.05-10 7.5-7.74-6.178-7.073-11.011 2-14.5zM14.5 44.5c2.148-.11 2.481.556 1 2-.865 1.083-1.865 1.25-3 .5.88-.708 1.547-1.542 2-2.5zM42.5 47.5c2.916 2.32 5.25 5.154 7 8.5-3.169 5.246-7.836 7.246-14 6L34 60.5a32.98 32.98 0 0 1 .5-11c2.357.163 4.69-.003 7-.5.556-.383.89-.883 1-1.5z"/><path style="opacity:1" fill="#cb0000" d="M52.5 53.5c2.653.642 3.82 2.308 3.5 5a24.023 24.023 0 0 1-3.5-5z"/><path style="opacity:1" fill="#fe9900" d="M3.5 59.5c40.3 43.137 80.467 86.47 120.5 130 .688.832.521 1.498-.5 2-39.448 20.176-73.948 13.842-103.5-19-8.437-11.295-13.77-23.962-16-38-.5-24.998-.667-49.998-.5-75zM30.5 63.5c-1.608 1.038-2.608.371-3-2 3.462-2.868 4.462-2.202 3 2z"/><path style="opacity:1" fill="#cb0000" d="M73.5 61.5c10.246-.93 13.246 3.236 9 12.5-3.403.1-6.57.934-9.5 2.5-4.822-5.384-4.655-10.384.5-15z"/><path style="opacity:1" fill="#bb0902" d="M86.5 63.5c0-.667.333-1 1-1 .617-.11 1.117-.444 1.5-1 .884 2.14.384 3.807-1.5 5-.886-.825-1.219-1.825-1-3z"/><path style="opacity:1" fill="#cb0000" d="M89.5 67.5c5.058-.783 8.558 1.217 10.5 6 1.173 3.805.007 6.639-3.5 8.5-11.054-.563-13.387-5.397-7-14.5z"/><path style="opacity:1" fill="#fe9900" d="M62.5 72.5c3.777.434 6.443 2.434 8 6a20.085 20.085 0 0 0-2 10h-12c-1.172-4.013-1.005-8.013.5-12 1.462-1.968 3.295-3.302 5.5-4z"/><path style="opacity:1" fill="#cc0700" d="M78.5 76.5c4.444 1.276 7.444 4.11 9 8.5a20.492 20.492 0 0 1-2.5 4.5 58.734 58.734 0 0 1-9.5-11 44.293 44.293 0 0 0 3-2z"/><path style="opacity:1" fill="#cb0000" d="M106.5 80.5c-1.679-.215-2.679.452-3 2-3.457 1.015-3.79.181-1-2.5 1.566-.765 2.899-.598 4 .5z"/><path style="opacity:1" fill="#fe9900" d="M71.5 80.5c4.585 2.914 8.585 6.58 12 11-10.21 3.464-14.21-.202-12-11z"/><path style="opacity:1" d="M106.5 80.5c-.473 1.406-1.473 2.073-3 2 .321-1.548 1.321-2.215 3-2z"/><path style="opacity:1" fill="#cd0a00" d="M91.5 84.5c11.215-.07 13.548 4.43 7 13.5-2 .667-4 .667-6 0a33.859 33.859 0 0 0-5-6c1.271-2.57 2.605-5.07 4-7.5z"/><path style="opacity:1" fill="#fe9900" d="M65.5 90.5a8.434 8.434 0 0 1 4 .5c1.39 2.39 3.39 4.057 6 5-4.12 11.952-9.786 12.618-17 2 .83-1.816 1.663-3.65 2.5-5.5a36.213 36.213 0 0 0 4.5-2zM54.5 92.5c1.467-.792 2.8-.792 4 0-1.193 1.884-2.86 2.384-5 1.5.556-.383.89-.883 1-1.5zM84.5 94.5c5.352 1.84 7.518 5.506 6.5 11-3.948 3.561-8.448 4.561-13.5 3-2.325-3.14-2.492-6.474-.5-10a64.453 64.453 0 0 1 7.5-4z"/><path style="opacity:1" fill="#cb0000" d="M95.5 101.5c.577-1.273 1.243-1.273 2 0-.47.963-1.136.963-2 0z"/><path style="opacity:1" fill="#fe9900" d="M93.5 103.5c.79.283 1.456.783 2 1.5-1.316.528-1.983.028-2-1.5zM71.5 112.5c-1.447-2.338-.947-4.338 1.5-6a49.673 49.673 0 0 0-1.5 6z"/><path style="opacity:1" fill="#cb0000" d="M116.5 107.5c10.888-.234 13.554 4.432 8 14-3.607-.485-7.107-.485-10.5 0-3.652-5.629-2.819-10.296 2.5-14zM131.5 107.5c1.353 2.015.853 3.682-1.5 5l-1.5-1.5a14.698 14.698 0 0 0 3-3.5zM106.5 113.5c1.996-1.188 2.829-.521 2.5 2-.708-.881-1.542-1.547-2.5-2zM132.5 113.5c5.798-.046 9.464 2.787 11 8.5-.49 1.982-1.49 3.649-3 5a87.287 87.287 0 0 0-7 2.5 21.754 21.754 0 0 0-6-7.5c.623-3.454 2.289-6.287 5-8.5z"/><path style="opacity:1" fill="#fe9900" d="M105.5 118.5c3.314.801 5.98 2.634 8 5.5-2.113 3.173-3.113 6.673-3 10.5-11.954 2.535-15.454-1.799-10.5-13 1.719-1.369 3.552-2.369 5.5-3z"/><path style="opacity:1" fill="#cb0000" d="M120.5 122.5c8 1.665 10.5 6.332 7.5 14a178.557 178.557 0 0 0-10.5-12 44.093 44.093 0 0 0 3-2z"/><path style="opacity:1" fill="#fe9900" d="M114.5 125.5a71.092 71.092 0 0 1 12 12.5c-7.321 3.006-11.987.673-14-7a18.155 18.155 0 0 0 2-5.5z"/><path style="opacity:1" fill="#cb0000" d="M147.5 127.5c-1.544.203-2.878.87-4 2l-1-1c1.489-2.249 3.489-3.082 6-2.5-.556.383-.889.883-1 1.5z"/><path style="opacity:1" fill="#cc0300" d="M134.5 130.5c10.611-.215 12.945 4.285 7 13.5-2.402.814-4.735.647-7-.5a19.887 19.887 0 0 0-3.5-4c.405-3.28 1.572-6.28 3.5-9z"/><path style="opacity:1" fill="#fefffe" d="M-.5 131.5c7.173 40.17 30.506 65.17 70 75h-70v-75zM165.5 132.5v74h-70c39.099-9.765 62.432-34.432 70-74z"/><path style="opacity:1" fill="#fe9900" d="M107.5 136.5c4.171.634 7.504 2.801 10 6.5-3.317 10.359-8.484 11.192-15.5 2.5-.652-4.566 1.182-7.566 5.5-9zM97.5 138.5c4.823-1.426 5.156-.759 1 2-2.221.061-2.554-.605-1-2zM127.5 140.5c3.711 1.399 6.044 4.066 7 8-2.234 4.711-6.067 7.044-11.5 7-1.711.061-3.044-.606-4-2a27.356 27.356 0 0 1 .5-11c2.357.163 4.69-.003 7-.5.556-.383.889-.883 1-1.5z"/><path style="opacity:1" fill="#d531ff" d="M138.5 146.5c1.725.343 2.225 1.343 1.5 3-1.039-.744-1.539-1.744-1.5-3z"/><path style="opacity:1" fill="#fe9900" d="M137.5 152.5c-1.243-3.807-.576-3.974 2-.5a2.428 2.428 0 0 1-2 .5zM116.5 154.5c-1.541 2.294-2.875 2.294-4 0 1.762-2.307 3.095-2.307 4 0z"/></svg>
